icons/person-help-outline.svg

<svg xmlns="http://www.w3.org/2000/svg" width="24" height="24" viewBox="0 0 24 24">
  <path d="M10.4676228,16.0003645 L11.0076763,16.0057544 C14.4141691,16.0682088 15.80903,16.6867426 15.9842893,19.0917479 L15.9953786,19.2802927 L16,19.5 L16,20.5 C16,20.7383924 15.9971539,20.817813 15.9690676,20.9648045 C15.9064905,21.2923056 15.7318635,21.5826456 15.4244325,21.7746571 C15.1451825,21.9490675 14.9786076,21.9883117 14.4919729,21.9973073 L14,22 L4,22 L3.65107363,21.9952256 C2.49782794,21.9601842 2.04900063,21.7156474 2.0039004,20.7255244 L2.00017148,20.5789484 L2,19.5 C2,16.7811217 3.40027757,16.074116 6.99322939,16.0059404 L7.53477183,16.0003645 L10.4676228,16.0003645 Z M7.53716646,18.0003616 C4.63739326,18.0073055 4.03538181,18.220675 4.00155904,19.3876232 L3.99999999,19.4998411 L3.999,20 L14,20 L14.0002452,19.5221452 L13.9966548,19.3478329 C13.9474604,18.265257 13.4009903,18.0221242 10.7281847,18.0016669 L7.53716646,18.0003616 Z M9,6 C11.209139,6 13,7.790861 13,10 C13,12.209139 11.209139,14 9,14 C6.790861,14 5,12.209139 5,10 C5,7.790861 6.790861,6 9,6 Z M9,8 C7.8954305,8 7,8.8954305 7,10 C7,11.1045695 7.8954305,12 9,12 C10.1045695,12 11,11.1045695 11,10 C11,8.8954305 10.1045695,8 9,8 Z M18.0001686,8 C18.5524586,8 19.0001686,8.4477 19.0001686,9 C19.0001686,9.5523 18.5524586,10 18.0001686,10 C17.4478886,10 17.0001686,9.5523 17.0001686,9 C17.0001686,8.4477 17.4478886,8 18.0001686,8 Z M18.0001686,2 C18.5537486,2 19.1555886,2.16344 19.6376686,2.525 C20.1397686,2.90158 20.5001686,3.48991 20.5001686,4.25 C20.5001686,4.69838 20.3847686,5.07994 20.1710686,5.4004 C19.9664386,5.70737 19.7009186,5.91339 19.4787086,6.06154 C19.3700286,6.134 19.2594286,6.20036 19.1657686,6.25656 L19.1657686,6.25656 C19.0591686,6.32052 18.9769786,6.37001 18.9005986,6.42093 C18.7478286,6.52279 18.6695886,6.59803 18.6242286,6.66609 C18.3944886,7.01075 17.9288386,7.10391 17.5841786,6.87417 C17.2395186,6.64442 17.1463586,6.17878 17.3760986,5.83412 C17.5807386,5.52712 17.8462486,5.32107 18.0684786,5.1729 C18.1772086,5.10041 18.2878586,5.03402 18.3815586,4.9778 L18.3815586,4.9778 C18.4880486,4.9139 18.5702386,4.86441 18.6466286,4.81349 C18.7994086,4.71162 18.8776486,4.63639 18.9229986,4.56835 C18.9593586,4.51381 19.0001686,4.42662 19.0001686,4.25 C19.0001686,4.01009 18.9022286,3.84842 18.7376686,3.725 C18.5530786,3.58656 18.2799186,3.5 18.0001686,3.5 C17.6314086,3.5 17.4046986,3.59004 17.2599386,3.68654 C17.1104886,3.78617 17.0014986,3.92438 16.9209886,4.08541 C16.7357486,4.45589 16.2852386,4.60606 15.9147586,4.42082 C15.5442686,4.23558 15.3940986,3.78507 15.5793486,3.41459 C15.7488286,3.07562 16.0148386,2.71383 16.4278886,2.43846 C16.8456386,2.15996 17.3689286,2 18.0001686,2 Z"/>
</svg>

<svg xmlns="http://www.w3.org/2000/svg" viewBox="0 0 24 24">
  <path d="M10.47 16H11c3.4.07 4.8.69 4.97 3.1l.02.18v1.22c0 .24 0 .32-.03.46a1.2 1.2 0 0 1-.55.81c-.27.18-.44.22-.93.23H3.65c-1.15-.04-1.6-.28-1.65-1.27V19.5c0-2.72 1.4-3.43 5-3.5h3.46zm-2.93 2c-2.9 0-3.5.22-3.54 1.39V20h10v-.65c-.05-1.08-.6-1.33-3.27-1.35h-3.2zM9 6a4 4 0 1 1 0 8 4 4 0 0 1 0-8zm0 2a2 2 0 1 0 0 4 2 2 0 0 0 0-4zm9 0a1 1 0 1 1 0 2 1 1 0 0 1 0-2zm0-6c.55 0 1.16.16 1.64.52.5.38.86.97.86 1.73a2.03 2.03 0 0 1-1.02 1.81l-.31.2-.27.16a.96.96 0 0 0-.28.25.75.75 0 0 1-1.24-.84c.2-.3.47-.5.69-.66l.31-.2c.1-.06.19-.1.27-.16.15-.1.23-.17.27-.24a.54.54 0 0 0 .08-.32.6.6 0 0 0-.26-.52A1.26 1.26 0 0 0 18 3.5c-.37 0-.6.09-.74.19a1 1 0 0 0-.34.4.75.75 0 0 1-1.34-.68c.17-.33.43-.7.85-.97.42-.28.94-.44 1.57-.44z"/>
</svg>
